flaticon/household/nightstand.svg

<svg xmlns="http://www.w3.org/2000/svg" width="32" height="32" viewBox="0 0 24 24">
    <path d="M 22.800781 16 L 22.800781 3.601562 C 23.460938 3.601562 24 3.0625 24 2.398438 C 24 1.738281 23.460938 1.199219 22.800781 1.199219 L 1.199219 1.199219 C 0.539062 1.199219 0 1.738281 0 2.398438 C 0 3.0625 0.539062 3.601562 1.199219 3.601562 L 1.199219 16 C 1.199219 16.222656 1.378906 16.398438 1.601562 16.398438 L 3.132812 16.398438 C 2.621094 17.09375 2.164062 18.066406 2.410156 19.199219 C 2.671875 20.402344 2.296875 20.828125 2.21875 20.902344 C 2.210938 20.910156 2.203125 20.914062 2.199219 20.921875 L 0.925781 22.109375 C 0.804688 22.21875 0.765625 22.394531 0.828125 22.546875 C 0.886719 22.699219 1.035156 22.800781 1.199219 22.800781 L 1.644531 22.800781 C 4.035156 22.800781 5.199219 21.59375 5.199219 19.113281 C 5.199219 17.253906 6.371094 16.5 6.429688 16.460938 L 6.519531 16.398438 L 17.480469 16.398438 L 17.582031 16.46875 C 17.628906 16.5 18.800781 17.253906 18.800781 19.113281 C 18.800781 21.59375 19.964844 22.800781 22.355469 22.800781 L 22.800781 22.800781 C 22.964844 22.800781 23.113281 22.699219 23.171875 22.546875 C 23.230469 22.394531 23.191406 22.21875 23.074219 22.105469 L 21.800781 20.921875 C 21.792969 20.914062 21.789062 20.910156 21.78125 20.902344 C 21.703125 20.828125 21.328125 20.402344 21.589844 19.199219 C 21.835938 18.066406 21.378906 17.09375 20.867188 16.398438 L 22.398438 16.398438 C 22.621094 16.398438 22.800781 16.222656 22.800781 16 Z M 0.800781 2.398438 C 0.800781 2.179688 0.980469 2 1.199219 2 L 22.800781 2 C 23.019531 2 23.199219 2.179688 23.199219 2.398438 C 23.199219 2.621094 23.019531 2.800781 22.800781 2.800781 L 1.199219 2.800781 C 0.980469 2.800781 0.800781 2.621094 0.800781 2.398438 Z M 22 3.601562 L 22 9.199219 L 2 9.199219 L 2 3.601562 Z M 4.398438 19.113281 C 4.398438 20.910156 3.75 21.792969 2.25 21.96875 L 2.753906 21.496094 C 2.761719 21.492188 2.769531 21.484375 2.773438 21.476562 C 3.019531 21.242188 3.519531 20.550781 3.191406 19.027344 C 2.949219 17.90625 3.660156 16.9375 4.183594 16.398438 L 5.324219 16.398438 C 4.886719 16.921875 4.398438 17.796875 4.398438 19.113281 Z M 20.808594 19.027344 C 20.480469 20.542969 20.976562 21.238281 21.222656 21.476562 C 21.230469 21.484375 21.238281 21.492188 21.246094 21.496094 L 21.75 21.96875 C 20.25 21.792969 19.601562 20.910156 19.601562 19.113281 C 19.601562 17.796875 19.113281 16.921875 18.679688 16.398438 L 19.816406 16.398438 C 20.339844 16.9375 21.050781 17.90625 20.808594 19.027344 Z M 22 15.601562 L 2 15.601562 L 2 10 L 22 10 Z M 22 15.601562"/>
    <path d="M2.878906 7.613281C3.246094 7.535156 3.601562 7.828125 3.601562 8.199219 3.601562 8.238281 3.597656 8.28125 3.589844 8.320312 3.5625 8.4375 3.59375 8.558594 3.671875 8.652344 3.746094 8.746094 3.859375 8.800781 3.980469 8.800781L20.019531 8.800781C20.140625 8.800781 20.253906 8.746094 20.328125 8.652344 20.40625 8.558594 20.4375 8.4375 20.410156 8.320312 20.402344 8.28125 20.398438 8.238281 20.398438 8.199219 20.398438 7.828125 20.75 7.535156 21.121094 7.613281 21.238281 7.636719 21.359375 7.605469 21.453125 7.53125 21.546875 7.453125 21.601562 7.339844 21.601562 7.21875L21.601562 5.578125C21.601562 5.460938 21.546875 5.34375 21.453125 5.269531 21.359375 5.195312 21.238281 5.164062 21.121094 5.1875 20.753906 5.265625 20.398438 4.972656 20.398438 4.601562 20.398438 4.558594 20.402344 4.519531 20.410156 4.480469 20.4375 4.363281 20.40625 4.238281 20.328125 4.148438 20.253906 4.054688 20.140625 4 20.019531 4L3.980469 4C3.859375 4 3.746094 4.054688 3.671875 4.148438 3.59375 4.238281 3.5625 4.363281 3.589844 4.480469 3.597656 4.519531 3.601562 4.558594 3.601562 4.601562 3.601562 4.972656 3.246094 5.261719 2.878906 5.1875 2.761719 5.164062 2.640625 5.195312 2.546875 5.269531 2.453125 5.34375 2.398438 5.460938 2.398438 5.578125L2.398438 7.21875C2.398438 7.339844 2.453125 7.453125 2.546875 7.53125 2.640625 7.605469 2.761719 7.636719 2.878906 7.613281zM3.199219 5.984375C3.8125 5.898438 4.296875 5.410156 4.386719 4.800781L19.613281 4.800781C19.703125 5.410156 20.1875 5.898438 20.800781 5.984375L20.800781 6.8125C20.1875 6.902344 19.703125 7.386719 19.613281 8L4.386719 8C4.296875 7.386719 3.8125 6.902344 3.199219 6.8125zM2.878906 14.011719C3.246094 13.9375 3.601562 14.230469 3.601562 14.601562 3.601562 14.640625 3.597656 14.679688 3.589844 14.71875 3.5625 14.835938 3.59375 14.960938 3.671875 15.054688 3.746094 15.144531 3.859375 15.199219 3.980469 15.199219L20.019531 15.199219C20.140625 15.199219 20.253906 15.144531 20.328125 15.054688 20.40625 14.960938 20.4375 14.835938 20.410156 14.71875 20.402344 14.679688 20.398438 14.640625 20.398438 14.601562 20.398438 14.230469 20.75 13.933594 21.121094 14.011719 21.238281 14.035156 21.359375 14.007812 21.453125 13.929688 21.546875 13.855469 21.601562 13.742188 21.601562 13.621094L21.601562 11.980469C21.601562 11.859375 21.546875 11.746094 21.453125 11.671875 21.359375 11.59375 21.238281 11.5625 21.121094 11.589844 20.753906 11.664062 20.398438 11.371094 20.398438 11 20.398438 10.960938 20.402344 10.917969 20.410156 10.878906 20.4375 10.761719 20.40625 10.640625 20.328125 10.546875 20.253906 10.453125 20.140625 10.398438 20.019531 10.398438L3.980469 10.398438C3.859375 10.398438 3.746094 10.453125 3.671875 10.546875 3.59375 10.640625 3.5625 10.761719 3.589844 10.878906 3.597656 10.917969 3.601562 10.960938 3.601562 11 3.601562 11.371094 3.246094 11.664062 2.878906 11.589844 2.761719 11.5625 2.640625 11.59375 2.546875 11.671875 2.453125 11.746094 2.398438 11.859375 2.398438 11.980469L2.398438 13.621094C2.398438 13.742188 2.453125 13.855469 2.546875 13.929688 2.640625 14.007812 2.761719 14.035156 2.878906 14.011719zM3.199219 12.386719C3.8125 12.296875 4.296875 11.8125 4.386719 11.199219L19.613281 11.199219C19.703125 11.8125 20.1875 12.296875 20.800781 12.386719L20.800781 13.214844C20.1875 13.300781 19.703125 13.789062 19.613281 14.398438L4.386719 14.398438C4.296875 13.789062 3.8125 13.300781 3.199219 13.214844zM3.199219 12.386719"/>
    <path d="M10.800781 13.601562L13.199219 13.601562C13.863281 13.601562 14.398438 13.0625 14.398438 12.398438 14.398438 12.179688 14.222656 12 14 12 13.777344 12 13.601562 12.179688 13.601562 12.398438 13.601562 12.621094 13.421875 12.800781 13.199219 12.800781L10.800781 12.800781C10.578125 12.800781 10.398438 12.621094 10.398438 12.398438 10.398438 12.179688 10.222656 12 10 12 9.777344 12 9.601562 12.179688 9.601562 12.398438 9.601562 13.0625 10.136719 13.601562 10.800781 13.601562zM10.800781 7.199219L13.199219 7.199219C13.863281 7.199219 14.398438 6.660156 14.398438 6 14.398438 5.777344 14.222656 5.601562 14 5.601562 13.777344 5.601562 13.601562 5.777344 13.601562 6 13.601562 6.222656 13.421875 6.398438 13.199219 6.398438L10.800781 6.398438C10.578125 6.398438 10.398438 6.222656 10.398438 6 10.398438 5.777344 10.222656 5.601562 10 5.601562 9.777344 5.601562 9.601562 5.777344 9.601562 6 9.601562 6.660156 10.136719 7.199219 10.800781 7.199219zM10.800781 7.199219"/>
</svg>

<svg xmlns="http://www.w3.org/2000/svg" width="32" height="32" viewBox="0 0 24 24">
    <path d="M22.8 16V3.602a1.202 1.202 0 0 0 0-2.402H1.2a1.202 1.202 0 0 0 0 2.402V16c0 .223.179.398.402.398h1.53c-.51.696-.968 1.668-.722 2.801.262 1.203-.113 1.63-.191 1.703-.008.008-.016.012-.02.02L.926 22.109a.39.39 0 0 0-.098.438.398.398 0 0 0 .371.254h.446c2.39 0 3.554-1.207 3.554-3.688 0-1.86 1.172-2.613 1.23-2.652l.09-.063H17.48l.102.07c.047.032 1.219.786 1.219 2.645 0 2.48 1.164 3.688 3.554 3.688h.446a.398.398 0 0 0 .37-.254.412.412 0 0 0-.097-.442l-1.273-1.183-.02-.02c-.078-.074-.453-.5-.191-1.703.246-1.133-.211-2.105-.723-2.8h1.531a.398.398 0 0 0 .403-.399zM.8 2.398A.4.4 0 0 1 1.2 2h21.6a.4.4 0 0 1 0 .8H1.2a.401.401 0 0 1-.4-.402zM22 3.602v5.597H2V3.602zM4.398 19.113c0 1.797-.648 2.68-2.148 2.856l.504-.473a.047.047 0 0 0 .02-.02c.246-.234.746-.925.417-2.449-.242-1.12.47-2.09.993-2.629h1.14c-.437.524-.926 1.399-.926 2.715zm16.41-.086c-.328 1.516.169 2.211.415 2.45.007.007.015.015.023.02l.504.472c-1.5-.176-2.148-1.059-2.148-2.856 0-1.316-.489-2.191-.922-2.715h1.136c.524.54 1.235 1.508.993 2.63zM22 15.602H2V10h20zm0 0"/>
    <path d="M2.879 7.613a.606.606 0 0 1 .71.707.381.381 0 0 0 .083.332.393.393 0 0 0 .308.149h16.04a.393.393 0 0 0 .308-.149.381.381 0 0 0 .082-.332.604.604 0 0 1 .71-.707.407.407 0 0 0 .333-.082.406.406 0 0 0 .149-.312v-1.64a.398.398 0 0 0-.149-.31.407.407 0 0 0-.332-.082.606.606 0 0 1-.71-.707.378.378 0 0 0-.083-.332A.393.393 0 0 0 20.02 4H3.98a.393.393 0 0 0-.308.148.378.378 0 0 0-.082.332.608.608 0 0 1-.71.707.407.407 0 0 0-.333.083.398.398 0 0 0-.149.308v1.64c0 .122.055.235.149.313a.407.407 0 0 0 .332.082zm.32-1.629a1.405 1.405 0 0 0 1.188-1.183h15.226c.09.61.575 1.097 1.188 1.183v.829A1.409 1.409 0 0 0 19.613 8H4.387a1.409 1.409 0 0 0-1.188-1.188zm0 0M2.879 14.012a.61.61 0 0 1 .71.707.39.39 0 0 0 .083.336c.074.09.187.144.308.144h16.04a.401.401 0 0 0 .308-.144.39.39 0 0 0 .082-.336.607.607 0 0 1 .71-.707.394.394 0 0 0 .333-.082.393.393 0 0 0 .149-.309v-1.64a.393.393 0 0 0-.149-.31.381.381 0 0 0-.332-.081.61.61 0 0 1-.71-.711.381.381 0 0 0-.083-.332.393.393 0 0 0-.308-.149H3.98a.393.393 0 0 0-.308.149.381.381 0 0 0-.082.332.61.61 0 0 1-.71.71.381.381 0 0 0-.333.083.393.393 0 0 0-.149.308v1.641c0 .121.055.234.149.309a.394.394 0 0 0 .332.082zm.32-1.625a1.409 1.409 0 0 0 1.188-1.188h15.226c.09.614.575 1.098 1.188 1.188v.828a1.405 1.405 0 0 0-1.188 1.183H4.387a1.405 1.405 0 0 0-1.188-1.183zm0 0"/>
    <path d="M10.8 13.602h2.4a1.2 1.2 0 0 0 1.198-1.204.398.398 0 1 0-.796 0c0 .223-.18.403-.403.403h-2.398a.402.402 0 0 1-.403-.403.398.398 0 1 0-.796 0 1.2 1.2 0 0 0 1.199 1.204zm0 0M10.8 7.2h2.4A1.2 1.2 0 0 0 14.397 6 .395.395 0 0 0 14 5.602a.395.395 0 0 0-.398.398c0 .223-.18.398-.403.398h-2.398A.398.398 0 0 1 10.398 6 .395.395 0 0 0 10 5.602.395.395 0 0 0 9.602 6c0 .66.535 1.2 1.199 1.2zm0 0"/>
</svg>
